X: 134
T: Mr A. McWHINNIE
C: D. MACINTYRE
R: Reel
B: Glen Collection p.13 #4
Z: 2011 John Chambers <jc:trillian.mit.edu>
M: C|
L: 1/8
V: 1 middle=B clef=treble
V: 2 middle=d clef=bass
%%score {1 | 2}
K: G
%
V: 1
c |\
BGdB cABG | A=fcf A=FFc | BGBd cABG | Agdg BGG :|
g |\
bgaf gdeB | cA=fc A=FFg | bgfa gdeB | cAgd BGGg |
bgaf gdeB | cA=fc A=FFc | BGcA dBec | fdaf gGG |]
%
V: 2
z |\
G2[b2g2d2] [a2f2d2][b2g2d2] | [c'2a2=f2][c'2a2f2] [c'2a2f2][c'2a2f2] |\
G2[b2g2d2] [a2f2d2][b2g2d2] | d'2d2 g2[gdG] :|
z |\
[b2g2d2][c'2a2d2] [b2g2d2][b2g2d2] | [c'2a2=f2][c'2a2f2] [c'2a2f2][c'2a2f2] |\
[b2g2d2][c'2a2d2] [b2g2d2][b2g2d2] | [a2f2d2][a2f2d2] [b2g2d2][b2g2d2] |
[b2g2d2][c'2a2d2] [b2g2d2][b2g2d2] | [c'2a2=f2][c'2a2f2] [c'2a2f2][c'2a2f2] |\
G2A2 B2c2 | d2[c'2a2d2] [b2g2][gG] |]
